X:1
T:Långdans nr 12 efter Ola Olsson (Nyårsdagen 1807)
R:Engelska
O:Blekinge
N:Från Carl-Gustaf Tullbergs notbok 1822
Z:Andy Davey, januari 2018
M:2/4
L:1/16
K:Bb
|: d2 cB ABAB | GBAB F2F2 | d2 cB B2AB | {d}cBcd c2z2 :|
|: BABc de=ef | g2c2 c2z2 | F=EFG AB=Bc | d2B2 B4 :|

